Newaita-dark/actions/32/object-rotate-right.svg

<?xml version="1.0" encoding="UTF-8"?>
<svg xmlns="http://www.w3.org/2000/svg" xmlns:xlink="http://www.w3.org/1999/xlink" width="32pt" height="32pt" viewBox="0 0 32 32" version="1.1">
<g id="surface1">
<path style=" stroke:none;fill-rule:nonzero;fill:rgb(47.058824%,56.470591%,61.176473%);fill-opacity:1;" d="M 5.292969 16.125 C 5.292969 10.261719 10.011719 5.542969 15.875 5.542969 L 15.875 8.1875 C 11.480469 8.1875 7.9375 11.730469 7.9375 16.125 Z M 5.292969 16.125 "/>
<path style=" stroke:none;fill-rule:nonzero;fill:rgb(74.117649%,74.117649%,74.117649%);fill-opacity:1;" d="M 27.121094 18.773438 C 28.222656 18.773438 29.105469 17.886719 29.105469 16.789062 L 29.105469 4.878906 C 29.105469 3.78125 28.222656 2.894531 27.121094 2.894531 L 20.507812 2.894531 C 19.40625 2.894531 18.523438 3.78125 18.523438 4.878906 L 18.523438 16.789062 C 18.523438 17.886719 19.40625 18.773438 20.507812 18.773438 Z M 25.800781 16.789062 L 21.832031 16.789062 C 21.097656 16.789062 20.507812 16.199219 20.507812 15.464844 L 20.507812 6.203125 C 20.507812 5.472656 21.097656 4.878906 21.832031 4.878906 L 25.800781 4.878906 C 26.53125 4.878906 27.121094 5.472656 27.121094 6.203125 L 27.121094 15.464844 C 27.121094 16.199219 26.53125 16.789062 25.800781 16.789062 Z M 25.800781 16.789062 "/>
<path style=" stroke:none;fill-rule:nonzero;fill:rgb(74.117649%,74.117649%,74.117649%);fill-opacity:1;" d="M 18.523438 20.757812 C 18.523438 19.65625 17.636719 18.773438 16.539062 18.773438 L 4.628906 18.773438 C 3.53125 18.773438 2.644531 19.65625 2.644531 20.757812 L 2.644531 27.371094 C 2.644531 28.472656 3.53125 29.355469 4.628906 29.355469 L 16.539062 29.355469 C 17.636719 29.355469 18.523438 28.472656 18.523438 27.371094 Z M 16.539062 22.082031 L 16.539062 26.050781 C 16.539062 26.78125 15.949219 27.371094 15.214844 27.371094 L 5.953125 27.371094 C 5.222656 27.371094 4.628906 26.78125 4.628906 26.050781 L 4.628906 22.082031 C 4.628906 21.347656 5.222656 20.757812 5.953125 20.757812 L 15.214844 20.757812 C 15.949219 20.757812 16.539062 21.347656 16.539062 22.082031 Z M 16.539062 22.082031 "/>
</g>
</svg>

<svg xmlns="http://www.w3.org/2000/svg" width="32pt" height="32pt" viewBox="0 0 32 32"><path d="M5.293 16.125A10.558 10.558 0 0 1 15.875 5.543v2.644a7.924 7.924 0 0 0-7.938 7.938zm0 0" fill="#78909c"/><path d="M27.121 18.773a1.98 1.98 0 0 0 1.984-1.984V4.88a1.98 1.98 0 0 0-1.984-1.984h-6.613a1.98 1.98 0 0 0-1.985 1.984v11.91a1.98 1.98 0 0 0 1.985 1.984zm-1.32-1.984h-3.969a1.32 1.32 0 0 1-1.324-1.324V6.203c0-.73.59-1.324 1.324-1.324h3.969c.73 0 1.32.594 1.32 1.324v9.262a1.32 1.32 0 0 1-1.32 1.324zm0 0M18.523 20.758a1.98 1.98 0 0 0-1.984-1.985H4.63a1.98 1.98 0 0 0-1.984 1.985v6.613a1.98 1.98 0 0 0 1.984 1.984h11.91a1.98 1.98 0 0 0 1.984-1.984zm-1.984 1.324v3.969c0 .73-.59 1.32-1.324 1.32H5.953c-.73 0-1.324-.59-1.324-1.32v-3.969c0-.734.594-1.324 1.324-1.324h9.262c.734 0 1.324.59 1.324 1.324zm0 0" fill="#bdbdbd"/></svg>
